images/short/icon_short2.svg

<svg width="71" height="59" viewBox="0 0 71 59" fill="none" xmlns="http://www.w3.org/2000/svg">
<path d="M46.7291 44.4057C46.7291 44.4057 47.731 45.0325 44.3359 49.0728C44.3359 49.0728 40.3822 53.5188 39.8184 52.9718C39.6343 52.0414 38.9643 49.8286 38.5397 48.9254C37.5141 46.7437 37.1404 45.6278 36.0564 43.7782" stroke="#A9C411" stroke-width="3" stroke-linecap="round"/>
<path d="M41.4998 50.0615C42.3017 46.547 40.4999 33.0615 37.954 29.8341C39.9479 34.0615 37.3856 26.1511 31.3279 23.6207C27.9364 22.204 23.2123 21.0731 20.5723 23.6207C18.1854 25.9241 17.5536 29.2484 18.4482 32.3188C19.1823 34.8384 21.6338 36.6706 24.3599 36.1819C28.0691 35.5169 27.6627 27.9585 26.7071 25.5944C22.1601 14.3444 7.57762 13.8122 7.00002 16.0621" stroke="#A9C411" stroke-width="3" stroke-linecap="round"/>
</svg>

<svg xmlns="http://www.w3.org/2000/svg" width="71" height="59" fill="none"><path stroke="#A9C411" stroke-linecap="round" stroke-width="3" d="M46.73 44.406s1.001.627-2.394 4.667c0 0-3.954 4.446-4.518 3.899-.184-.93-.854-3.143-1.278-4.047-1.026-2.181-1.4-3.297-2.484-5.147"/><path stroke="#A9C411" stroke-linecap="round" stroke-width="3" d="M41.5 50.062c.802-3.515-1-17-3.546-20.228 1.994 4.228-.568-3.683-6.626-6.213-3.392-1.417-8.116-2.548-10.756 0-2.387 2.303-3.018 5.627-2.124 8.698.734 2.52 3.186 4.352 5.912 3.863 3.71-.665 3.303-8.224 2.347-10.588C22.16 14.344 7.577 13.812 7 16.062"/></svg>
